X:1
T: Cup of Tay
C:
R:Reel
Q: 232
K:Am
M:4/4
L:1/8
|:eA ((3AAA) g2 ^fa|eA Ac BG G2|eA ((3AAA) g2 ^fg|a^f ge dg fg|
eA ((3AAA) g2 ^fa|eA Ac BG G2|eA ((3AAA) g2 ^fg|a^f ge d2 ^cd|
ea ag e^f gf|ea ag ed cd|ea ag e^f gb|a^f ge d2 ^cd|
ea ag e^f gf|ea ag ed cd|ea ag e^f gb|a^f ge d2 d2:|
